X: 1
T: Portland Fancy
C: J-42
M: 6/8
Z: Transcribed to abc by Mary Lou Knack
R: jig
K: G
   "D7"FE \
| "G"D2G D2G | DGA B2B | "C"cBc "D7"ABc | "C"e2d "D"BGE \
| "G"D2G D2G | DGA B2B | "C"cBc "D7"DEF | "G"GBA Gy |]
   Bd \
| "G"g2g "D"fgf | "C"ece "G"d2B | "C"cBc "D7"ABc | "G"Bcd "C"e2"D7"d \
| "G"g2g "D"fgf | "C"ece "G"d2B | "C"cBc "D7"DEF | "G"GBA Gy |]
K: C
   "G7"E=F \
| "C"GAB c2d | e2f g3 | "Dm"def "G7"Gcd | "C"e2c "G7"GEF \
| "C"GAB c2d | e2f g3 | "Dm"def "G7"GAB | "C"c2e cy |]
   zA \
| "C"E2G E2G | EGc e3 | "G7"dBd fdB | "C"ced "G7"cGF \
| "C"E2G E2G | EGc e3 | "G7"dBd fdB | "C"c3 cy |]
